docs/public/icons/fa-link-external.svg

<svg xmlns="http://www.w3.org/2000/svg" viewBox="0 0 448 512"><!--! Font Awesome Pro 6.2.0 by @fontawesome - https://fontawesome.com License - https://fontawesome.com/license (Commercial License) Copyright 2022 Fonticons, Inc. --><path d="M272 64C263.2 64 256 56.84 256 48C256 39.16 263.2 32 272 32H432C440.8 32 448 39.16 448 48V208C448 216.8 440.8 224 432 224C423.2 224 416 216.8 416 208V86.63L187.3 315.3C181.1 321.6 170.9 321.6 164.7 315.3C158.4 309.1 158.4 298.9 164.7 292.7L393.4 64H272zM0 112C0 85.49 21.49 64 48 64H176C184.8 64 192 71.16 192 80C192 88.84 184.8 96 176 96H48C39.16 96 32 103.2 32 112V432C32 440.8 39.16 448 48 448H368C376.8 448 384 440.8 384 432V304C384 295.2 391.2 288 400 288C408.8 288 416 295.2 416 304V432C416 458.5 394.5 480 368 480H48C21.49 480 0 458.5 0 432V112z"/></svg>

<svg xmlns="http://www.w3.org/2000/svg" viewBox="0 0 448 512">
<!--! Font Awesome Pro 6.2.0 by @fontawesome - https://fontawesome.com License - https://fontawesome.com/license (Commercial License) Copyright 2022 Fonticons, Inc.-->
  <path d="M272 64a16 16 0 0 1 0-32h160a16 16 0 0 1 16 16v160a16 16 0 0 1-16 16 16 16 0 0 1-16-16V86.6L187.3 315.3a15.9 15.9 0 0 1-22.6 0 15.9 15.9 0 0 1 0-22.6L393.4 64H272zM0 112a48 48 0 0 1 48-48h128a16 16 0 0 1 0 32H48a16 16 0 0 0-16 16v320a16 16 0 0 0 16 16h320a16 16 0 0 0 16-16V304a16 16 0 0 1 16-16 16 16 0 0 1 16 16v128a48 48 0 0 1-48 48H48a48 48 0 0 1-48-48V112z"/>
</svg>
